X: 29375
T: Newmarket, The
R: polka
M: 2/4
K: Dmajor
|:DF AF/A/|dc Bc|EF G/B/A/F/|BA FA|
DF AF/A/|dc Bc|EF G/B/G/E/|DC D2:|
|:|fA fA|fA fa/f/|eB gB|cd eB/e/|
fA fA|fA fB|e/g/e/d/ Bc|ed d2:|

